icons/pixijs.svg

<?xml version="1.0" encoding="UTF-8"?>
<svg width="512px" height="180px" viewBox="0 0 512 180" version="1.1" xmlns="http://www.w3.org/2000/svg" xmlns:xlink="http://www.w3.org/1999/xlink" preserveAspectRatio="xMidYMid">
    <g>
        <path d="M462.21154,4.26282052 C481.394232,4.26282052 495.400642,8.22115387 505.448719,12.7884616 L505.448719,12.7884616 L497.075322,43.6939104 C490.22436,40.3445514 478.197117,35.6250001 461.602565,35.6250001 C445.008014,35.6250001 436.939104,43.084936 436.939104,51.9150642 C436.939104,62.7243591 446.378206,67.596154 468.301283,75.8173079 C498.141027,86.93109 512.299681,102.459936 511.995194,126.36218 C511.995194,154.831731 490.072117,178.886218 443.637822,178.886218 C424.302886,178.886218 405.272437,173.86218 395.681091,168.533654 L395.681091,168.533654 L403.445514,136.866988 C413.798078,142.04327 429.631411,147.371795 445.921476,147.371795 C463.581732,147.371795 472.868591,140.216347 472.868591,129.102564 C472.868591,118.445513 464.951924,112.508013 444.551283,105.200321 C420.192309,96.6746798 403.29327,84.0384618 399.03045,64.8557694 L399.03045,64.8557694 L399.03045,114.030449 C399.03045,162.139424 375.889424,179.038462 338.741988,179.038462 C329.91186,179.038462 318.493591,177.516026 310.881411,175.080129 L310.881411,175.080129 L315.144232,144.17468 C320.472757,146.001603 327.171475,147.219552 334.783655,147.219552 C350.921475,147.219552 360.969552,139.911859 360.969552,113.573718 L360.969552,113.573718 L360.969552,7.00320515 L399.182693,7.00320515 L399.182693,45.2163463 C404.206732,21.4663462 427.04327,4.26282052 462.21154,4.26282052 Z M51.7628207,5.78525643 C75.3605771,5.78525643 92.2596156,10.3525641 103.525641,19.334936 C113.116987,26.9471155 119.967949,39.1266027 121.338141,53.4375001 L121.338141,53.4375001 L191.065706,53.4375001 L203.092949,73.8381412 C206.594552,80.0801284 209.943911,86.3221156 213.141026,92.1073721 L213.141026,92.1073721 L213.597757,92.1073721 C216.947116,85.5608977 219.991988,79.3189105 223.189103,73.2291669 L223.189103,73.2291669 L233.998398,53.4375001 L306.618591,53.4375001 L306.618591,176.450321 L232.780449,176.450321 L220.448719,154.375 C216.947116,148.285256 213.902244,142.04327 210.857372,135.801282 L210.857372,135.801282 L210.096154,135.801282 C207.051283,142.347757 203.854167,148.285256 200.809295,154.375 L200.809295,154.375 L189.238783,176.450321 L117.075321,176.450321 L117.075321,82.2115387 C114.48718,88.6057695 110.833334,94.2387823 105.961539,98.80609 C93.0208336,111.137821 73.6858976,116.61859 51.0016027,116.61859 C45.9775642,116.61859 41.4102565,116.314103 37.908654,115.857372 L37.908654,115.857372 L37.908654,176.298077 L0,176.298077 L0,9.286859 C11.875,7.30769233 28.4695514,5.78525643 51.7628207,5.78525643 Z M268.405449,63.7900643 L235.064103,112.051282 L268.405449,164.575321 L268.405449,63.7900643 Z M155.288462,63.7900643 L155.288462,164.423077 L189.086539,113.878205 L155.288462,63.7900643 Z M53.7419873,34.7115386 C45.9775642,34.7115386 40.6490386,35.4727565 37.908654,36.2339745 L37.908654,36.2339745 L37.908654,86.0176284 C41.1057693,86.7788464 45.2163463,87.0833336 50.6971155,87.0833336 C71.0977566,87.0833336 83.581731,76.883013 83.581731,59.5272438 C83.581731,43.9983976 72.7724361,34.7115386 53.7419873,34.7115386 Z M136.258013,7.10542736e-15 C148.589744,7.10542736e-15 156.354167,8.22115387 156.506411,19.334936 C156.506411,29.8397437 148.589744,38.3653847 135.953526,38.3653847 C123.926282,38.3653847 115.857372,29.8397437 116.161859,19.334936 C115.857372,8.22115387 123.926282,7.10542736e-15 136.258013,7.10542736e-15 Z M287.588142,0 C299.919873,0 307.684296,8.22115387 307.836539,19.334936 C307.836539,29.8397437 299.919873,38.3653847 287.283655,38.3653847 C275.256411,38.3653847 267.187501,29.8397437 267.491988,19.334936 C267.187501,8.22115387 275.256411,0 287.588142,0 Z" fill="#EA1E63" fill-rule="nonzero"></path>
    </g>
</svg>

<svg xmlns="http://www.w3.org/2000/svg" viewBox="0 0 512 179.038">
  <path fill="#ea1e63" d="M462.212 4.263c19.182 0 33.189 3.958 43.237 8.525l-8.374 30.906c-6.85-3.35-18.878-8.069-35.472-8.069-16.595 0-24.664 7.46-24.664 16.29 0 10.81 9.44 15.681 31.362 23.902 29.84 11.114 43.999 26.643 43.694 50.545 0 28.47-21.923 52.524-68.357 52.524-19.335 0-38.366-5.024-47.957-10.352l7.765-31.667c10.352 5.176 26.185 10.505 42.475 10.505 17.66 0 26.948-7.156 26.948-18.27 0-10.656-7.917-16.594-28.318-23.902-24.359-8.525-41.258-21.162-45.52-40.344v49.174c0 48.11-23.142 65.008-60.289 65.008-8.83 0-20.248-1.522-27.86-3.958l4.262-30.905c5.329 1.827 12.027 3.045 19.64 3.045 16.137 0 26.186-7.308 26.186-33.646V7.004h38.213v38.212c5.024-23.75 27.86-40.953 63.029-40.953zM51.762 5.785c23.599 0 40.498 4.568 51.764 13.55 9.591 7.612 16.442 19.792 17.812 34.102h69.728l12.027 20.401c3.502 6.242 6.85 12.484 10.048 18.27h.457c3.35-6.547 6.394-12.79 9.591-18.879L234 53.438h72.62V176.45H232.78l-12.331-22.075c-3.502-6.09-6.547-12.332-9.592-18.574h-.76c-3.046 6.547-6.243 12.484-9.288 18.574l-11.57 22.075h-72.164V82.212c-2.588 6.394-6.242 12.027-11.113 16.594-12.941 12.332-32.276 17.813-54.96 17.813-5.024 0-9.592-.305-13.093-.762v60.441H0V9.287c11.875-1.98 28.47-3.502 51.763-3.502zM268.406 63.79l-33.34 48.261 33.34 52.524zm-113.117 0v100.633l33.799-50.545zM53.742 34.712c-7.764 0-13.093.76-15.833 1.522v49.784c3.197.76 7.307 1.065 12.788 1.065 20.4 0 32.885-10.2 32.885-27.556 0-15.529-10.81-24.815-29.84-24.815zM136.258 0c12.332 0 20.096 8.221 20.248 19.335 0 10.505-7.916 19.03-20.552 19.03-12.028 0-20.097-8.525-19.792-19.03C115.857 8.22 123.926 0 136.258 0zm151.33 0c12.332 0 20.096 8.221 20.249 19.335 0 10.505-7.917 19.03-20.553 19.03-12.028 0-20.096-8.525-19.792-19.03C267.187 8.22 275.256 0 287.588 0z"/>
</svg>
